X:54
T:Silver Spear
R:Reel
A:Ireland
N:Should not be confused with The Silver Spire, #373
Z:id:hn-reel-39
M:C|
K:D
FA~A2 BAFA|dfed BcdB|FA~A2 BAFA|dfed B2AG|
FA~A2 BAFA|dfed Bdef|~g3e ~f3e|dfed B2A2:|
|:f2af bfaf|gfed Bcde|f2af bfaf|gfed B2A2|
f2af bfaf|gfed Bdef|~g3e ~f3e|dfed B2A2:|
